packages/elvis-assets-icons/icons/svg/src/phone.svg

<svg width="24" height="24" fill="none" xmlns="http://www.w3.org/2000/svg"><path d="M8.251 24a3.754 3.754 0 01-3.75-3.75V3.75A3.754 3.754 0 018.251 0h7.5a3.754 3.754 0 013.75 3.75v16.5a3.754 3.754 0 01-3.75 3.75h-7.5zm-2.25-3.75a2.252 2.252 0 002.25 2.25h7.5a2.252 2.252 0 002.25-2.25v-.75h-12v.75zm12-2.25V3.75a2.252 2.252 0 00-2.25-2.25h-7.5a2.252 2.252 0 00-2.25 2.25V18h12z" fill="#000"/></svg>

<svg width="24" height="24" viewBox="0 0 24 24" fill="none" xmlns="http://www.w3.org/2000/svg">
<path d="M8.251 24C6.183 24 4.501 22.318 4.501 20.25V3.75C4.501 1.682 6.183 0 8.251 0H15.751C17.819 0 19.501 1.682 19.501 3.75V20.25C19.501 22.318 17.819 24 15.751 24H8.251ZM6.001 20.25C6.001 21.491 7.01 22.5 8.251 22.5H15.751C16.992 22.5 18.001 21.491 18.001 20.25V19.5H6.001V20.25ZM18.001 18V3.75C18.001 2.509 16.992 1.5 15.751 1.5H8.251C7.01 1.5 6.001 2.509 6.001 3.75V18H18.001Z" fill="black"/>
</svg>
